src/icons/main-email.svg

<svg enable-background="new 0 0 14 9" viewBox="0 0 14 9" xmlns="http://www.w3.org/2000/svg"><path d="m0 .7v7.7l4.4-4zm13.2-.7h-12.4l6.2 5.1zm-3.6 4.3 4.4 4v-7.6zm-2.3 1.8c0 .1-.2.2-.3.2s-.3 0-.3-.1l-1.5-1.3-4.5 4.1h12.5l-4.4-4.1z" fill="#4d5969"/></svg>

<?xml version="1.0" encoding="utf-8"?>
<!-- Generator: Adobe Illustrator 20.1.0, SVG Export Plug-In . SVG Version: 6.00 Build 0)  -->
<svg version="1.1" id="Layer_1" xmlns="http://www.w3.org/2000/svg" xmlns:xlink="http://www.w3.org/1999/xlink" x="0px" y="0px"
	 viewBox="0 0 14 9" style="enable-background:new 0 0 14 9;" xml:space="preserve">
<style type="text/css">
	.st0{fill:#4D5969;}
</style>
<title>HDL/Icon/Standard/email</title>
<desc>Created with Sketch.</desc>
<g id="Colors">
	<g id="Main-Icons" transform="translate(-621.000000, -317.000000)">
		<g id="Email" transform="translate(600.000000, 305.000000)">
			<g id="HDL_x2F_Icon_x2F_Standard_x2F_email" transform="translate(21.000000, 12.000000)">
				<path id="Shape" class="st0" d="M0,0.7v7.7l4.4-4L0,0.7z M13.2,0H0.8L7,5.1L13.2,0z M9.6,4.3l4.4,4V0.7L9.6,4.3z M7.3,6.1
					L7.3,6.1C7.3,6.2,7.1,6.3,7,6.3s-0.3,0-0.3-0.1l0,0L5.2,4.9L0.7,9h12.5L8.8,4.9L7.3,6.1z"/>
			</g>
		</g>
	</g>
</g>
</svg>
